X: 1
T: Galway Piper, The
M: 2/4
L: 1/8
R: polka
K: Dmaj
|A2 BF|A3 d/c/|BF Bc|B3 e/f/|g/f/e/f/ G/F/E/F/|BA AF/A/|BB B/c/B/A/|FD D2|
|A2 BF|A3 d/c/|BF Bc|B3 e/f/|g/f/e/f/ g/f/e/f/|bA AF/A/|BB B/c/B/A/|FD D2||
|Ad d>e|dd dc/B/|Af fe|f3 a|be ed|e2 de|1 fA AF/A/|BA AF/G/:|2 fA f/g/f/e/|df d2||
|B/A/F/A/ B/A/F/A/|BA AB/c/|dd dB|cB B2|G/F/E/F/ G/F/E/F/|BA AF/A/|BB B/c/B/A/|FD D2|
B/A/F/A/ B/A/F/A/|BA AB/c/|dd dB|cB B2|g/f/e/f/ g/f/e/f/|bA AF/A/|BB B/c/B/A/|FD D2||
